X: 20861
T: Maggy of Drumlanrig
%R: reel
B: James Oswald "The Caledonian Pocket Companion" v.2 p.86 #1
Z: 2019 John Chambers <jc:trillian.mit.edu>
N: The rhythms aren't right at strain boundaries; not fixed.
N: Added rest to 2nd strain's pickup note to fix the rhythms.
M: C|
L: 1/8
K: G
"_Brisk"Bc |\
d3e (dB) GD | E2G2 G2Bd | e3d c2(BA) | B2d2 d3g | (dB)(A^G) A2(ce) |\
dB AF G2ef | g2(e^c) d2(ef) |
g2(e^c) d3e | f2(ed )(cB)(AG) | F2D2 D2 :: zA |\
A2(FG) (AF)(ED) | (GF)(BA) A3d |
B2(GA) (Be)(cA) | G2E2 E3d | d2=F2 F3d |\
c2E2 E3e | (dB)(AB) G2ge | (dB)(AB) G3d | e2(ge) (dB)(Ad) | B2G2 G2 :|


